img/back.svg

<svg width="37" height="24" viewBox="0 0 37 24" xmlns="http://www.w3.org/2000/svg" xmlns:xlink="http://www.w3.org/1999/xlink"><title>Arrow</title><path id="back-arrow" d="M36.0607 1.06066c.5857-.585786.5857-1.535534 0-2.12132l-9.546-9.54594c-.5858-.5858-1.5355-.5858-2.1213 0-.5858.5858-.5858 1.53553 0 2.12132L32.8787 0l-8.4853 8.48528c-.5858.58579-.5858 1.53552 0 2.12132.5858.5858 1.5355.5858 2.1213 0l9.546-9.54594zM0 1.5h35v-3H0v3z" transform="rotate(180 18.5 6)" fill="#888" /></svg>

<svg width="37" height="24" viewBox="0 0 37 24" version="1.1" xmlns="http://www.w3.org/2000/svg" xmlns:xlink="http://www.w3.org/1999/xlink"><title>Arrow</title><g id="Canvas" transform="translate(-3819 -3034)"><g id="Arrow"><use xlink:href="#path0_stroke" transform="matrix(-1 1.22465e-16 -1.22465e-16 -1 3856 3046)" fill="#888888"/></g></g><defs><path id="path0_stroke" d="M 36.0607 1.06066C 36.6464 0.474874 36.6464 -0.474874 36.0607 -1.06066L 26.5147 -10.6066C 25.9289 -11.1924 24.9792 -11.1924 24.3934 -10.6066C 23.8076 -10.0208 23.8076 -9.07107 24.3934 -8.48528L 32.8787 0L 24.3934 8.48528C 23.8076 9.07107 23.8076 10.0208 24.3934 10.6066C 24.9792 11.1924 25.9289 11.1924 26.5147 10.6066L 36.0607 1.06066ZM 0 1.5L 35 1.5L 35 -1.5L 0 -1.5L 0 1.5Z"/></defs></svg>
